X:215
T:Behold, A Host, Arrayed in White
%%stretchlast false
M:6/4
L:1/4
K:Eb clef=C1
"^I"[E,G,B,E]/ [E,G,B,G]/ [E,G,B,B]2 [E,B,GB] "^i°7"[E,=A,_Gc]2 | "^I"[E,B,GB] "^I7³"[_D,B,EG]3/2 "^♯vi"[_D,B,E]/ "^I7³"[_D,B,EG]/ "^♯vi"[_D,B,EB]/ "^II7²"[C,=A,EF]2 | "^ii7²"[C,A,EF]/ "^IVmaj7¹"[C,A,EG]/ [B,,A,EA] "^V7"[B,,DFA] "^ii¹"[A,CF] "^vi²"[G,CE]3/2 [G,CEF]/ | "^vi7"[C,B,EG]/ "^IV¹"[C,B,EA]/ [F,A,EB] "^ii"[F,A,CB] "^♯iii°"[B,,A,D] "^I"[E,G,B,E]2 | "^vi"[C,CEG]/ "^IV¹"[C,CEA]/ "^V"[B,,DFB]3/2 "^iii¹"[B,,DG]/ "^IV"[A,,EAc]/ [A,,EAB]/ "^V"[B,,DFB]2 | "^IV"[A,,EAc] "^i"[B,,EFB] "^V"[B,DFB]/ [B,DF]/ "^ii"[F,CFA] "^V/vi"[G,=B,DG]2 | "^vi"[C,G,E]/ "^ii7²"[C,A,EF]/ "^I²"[B,,B,EG] "^iii¹"[B,,B,G]/ "^♯iii¹"[B,,B,A]/ "^♯iv"[B,,=A,CG] "^V7"[B,,A,DF] "^♯iii"[B,,A,CF]/ [B,,A,CG]/ | "^V7"[B,,A,DF] "^i"[E,A,B,E]2 [E,F,B,E] "^I"[E,G,B,E]2 | [E,G,B,E]/ [E,G,B,G]/ [E,G,B,B]2 [E,B,GB] "^i°7"[E,=A,_Gc]2 | "^I"[E,B,GB] "^I7³"[_D,B,EG]3/2 "^♯vi"[_D,B,E]/ "^I7³"[_D,B,EG]/ "^♯vi"[_D,B,EB]/ "^II7²"[C,=A,EF]2 | "^ii7²"[C,A,EF]/ "^IVmaj7¹"[C,A,EG]/ [B,,A,EA] "^V7"[B,,DFA] "^ii¹"[A,CF] "^vi²"[G,CE]3/2 [G,CEF]/ | "^vi7"[C,B,EG]/ "^IV¹"[C,B,EA]/ [F,A,EB] "^ii"[F,A,CB] "^♯iii°"[B,,A,D] "^I"[E,G,B,E]2 | "^vi"[C,CEG]/ "^IV¹"[C,CEA]/ "^V"[B,,DFB]3/2 "^iii¹"[B,,DG]/ "^IV"[A,,EAc]/ [A,,EAB]/ "^V"[B,,DFB]2 | "^IV"[A,,EAc] "^i"[B,,EFB] "^V"[B,DFB]/ [B,DF]/ "^ii"[F,CFA] "^V/vi"[G,=B,DG]2 | "^vi"[C,G,E]/ "^ii7²"[C,A,EF]/ "^I²"[B,,B,EG] "^iii¹"[B,,B,G]/ "^♯iii¹"[B,,B,A]/ "^♯iv"[B,,=A,CG] "^V7"[B,,A,DF] "^♯iii"[B,,A,CF]/ [B,,A,CG]/ | "^V7"[B,,A,DF] "^i"[E,A,B,E]2 [E,F,B,E] "^I"[E,G,B,E]2 | [E,G,E]/ [E,B,EG]/ "^vi¹"[E,=A,Gc]2 "^IVmaj7²"[E,A,Gc] [E,A,Gc]2 | "^I"[E,B,GB] "^I7³"[_D,B,EG]3/2 "^♯vi"[_D,B,E]/ "^I7³"[_D,B,EG]/ "^♯vi"[_D,B,EB]/ "^vi"[C,B,EF]2 | "^II7²"[C,=A,EF]/ "^vi"[C,F,EG]/ "^i"[B,,F,EA] [B,,EFA]/ "^V7"[B,,DFA]/ "^viiø7²"[A,,CDF]/ "^V7³"[A,,B,DF]/ "^vi²"[G,,CE]3/2 [G,,CEF]/ | "^vi7"[C,B,EG]/ "^IV¹"[C,B,EA]/ [F,,B,EB] [F,,B,CB] "^♯iii°"[B,,A,D] "^I"[E,G,B,E]2 | "^vi"[C,CEG]/ "^IV¹"[C,CEA]/ "^V"[B,,DFB]3/2 "^iii¹"[B,,DG]/ "^IV"[A,,EAc] "^V"[B,,DFB]2 | "^IV"[A,,EAc] "^i"[B,,EFB] "^V"[B,DFB]/ [B,DF]/ "^ii"[F,CFA] "^V/vi"[G,=B,DG]2 | "^vi"[C,G,E]/ "^ii7²"[C,A,EF]/ "^I²"[B,,B,EG] "^iii¹"[B,,B,G]/ "^♯iii¹"[B,,B,A]/ "^♯iv"[B,,=A,CG] "^i"[B,,A,EF] "^♯iii"[B,,A,CF]/ [B,,A,CG]/ | "^V7"[B,,A,DF] "^i"[E,A,B,E]2 [E,F,B,E] "^I"[E,G,B,E]2 |]
